X:1
T:A minor                Barnabas McKyes, 1798
T:Isaac Watts, 1717 (Psalm 130, Part 1)          86. 86. (C. M.)
T:Despair
T:Transcribed from Benham's Social Harmony, 1798.
%%score [ 1 2 3 4 ]
L:1/8
Q:1/4=120
M:4/4
K:C
V:1 treble nm="Tr." snm="Tr."
V:2 treble nm="C." snm="C."
V:3 treble-8 nm="T." snm="T."
V:4 bass nm="B." snm="B."
V:1
 E4 A2 A2 | (G3 A B2) e2 | d6 B2 | c8 | G4 B2 B2 | (c3 d e2) e2 | e8 | B4 c2 B2 | (A4 e4) | %9
w: |||||||||
w: |||||||||
w: |||||||||
w: |||||||||
 (c2 A2) A2 EF | G6 z2 | z4 z2 cB | A6 c2 | B2 B2 B2 c2 | e3 c B2 B2 | A8 |] %16
w: ||My *|groans to|move thine ear, My|groans to move thine|ear.|
w: ||No *|mor- tal|flesh could stand, No|mor- tal flesh could|stand.|
w: ||To *|draw us|near to thee, To|draw us near to|thee.|
w: ||Stands *|wat- ching|at thy gate, Stands|wat- ching at thy|gate.|
V:2
 E4 E2 E2 | E6 E2 | A6 G2 | G8 | G4 G2 G2 | E6 E2 | E8 | E4 E2 F2 | E8 | A4 A2 [EA]2 | [EG]6 z2 | %11
w: 1.~Out of the|deeps of|long dis-|tress,|The bor- ders|of des-|pair,|I sent my|cries|to seek thy|grace,|
w: 2.~Great God, should|thy se-|ve- rer|eye,|And thine im-|par- tial|hand,|Mark and re-|venge|in- i- qui-|ty,|
w: 3.~But there are|par- dons|with my|God,|For crimes of|high de-|gree;|The Son has|bought|them with his|blood,|
w: 4.~I wait for|thy sal-|va- tion,|Lord,|With strong de-|sires I|wait;|My soul, in-|vi-|–ted by thy|word,|
 z8 | z4 z2 A2 | G6 G2 | (G3 F E2) E2 | E8 |] %16
w: |My|groans to|move~ _ _ thine|ear.|
w: |No|mor- tal|flesh~ _ _ could|stand.|
w: |To|draw us|near~ _ _ to|thee.|
w: |Stands|wat- ching|at~ _ _ thy|gate.|
V:3
 e4 e2 c2 | B6 c2 | (A3 G A2) EF | G8 | c4 d2 B2 | (A3 BcA) G2 | E8 | e4 c2 d2 | (e3 f g4) | %9
w: ||||||||* ~ _|
w: |||||||||
w: |||||||||
w: |||||||||
 (a2 e2) d2 c2 | B6 e2 | A6 Bc | d2 d2 d2 cd | (e3 f g2) c2 | (B3 A G2) E2 | A8 |] %16
w: _ _ _ _|* My|groans to *|move thine ear, My *|groans~ _ _ to|move~ _ _ thine|ear.|
w: |* No|mor- tal *|flesh could stand, No *|mor- * * tal|flesh~ _ _ could|stand.|
w: |* To|draw us *|near to thee, To *|draw~ _ _ us|near~ _ _ to|thee.|
w: |* Stands|wat- ching *|at thy gate, Stands *|wat- * * ching|at~ _ _ thy|gate.|
V:4
 A,4 A,2 A,2 | E,6 C,2 | D,6 E,2 | C,8 | C,4 G,2 G,2 | (A,4 E,2) E,2 | A,,8 | E,4 A,2 B,2 | C8 | %9
w: |||||||||
w: |||||||||
w: |||||||||
w: |||||||||
"^_____________________________________\nEdited by B. C. Johnston, 2017\nMeasure 10, Counter: last note changed from A/F to A/E.""^______________________________________________________________________________________________________________________________________\n5. Just as the guards that keep the night\nLong for the morning skies,\nWatch the first beams of breaking light,\nAnd meet them with their eyes;" A,4 A,2 A,2 | %10
w: |
w: |
w: |
w: |
"^_____________________________________\nEdited by B. C. Johnston, 2017\nMeasure 10, Counter: last note changed from A/F to A/E." E,6 E,2 | %11
w: * My|
w: * No|
w: * To|
w: * Stands|
"^6. So waits my soul to see thy grace,\nAnd, more intent than they,\nMeets the first openings of thy face,\nAnd finds a brighter day." (D,8- | %12
w: groans~|
w: mor-|
w: draw~|
w: wat-|
 D,8 | %13
w: _|
w: |
w: _|
w: |
"^8. There's full redemption at his throne\nFor sinners long enslaved;\nThe great Redeemer is his Son,\nAnd Israel shall be saved.""^7. Then in the Lord let Israel trust,\nLet Israel seek his face;\nThe Lord is good as well as just,\nAnd plenteous is his grace." E,3 D, G,2) A,2 | %14
w: * * * to|
w: * * * tal|
w: * * * us|
w: * * * ching|
"^8. There's full redemption at his throne\nFor sinners long enslaved;\nThe great Redeemer is his Son,\nAnd Israel shall be saved." E,6 E,2 | %15
w: move thine|
w: flesh could|
w: near to|
w: at thy|
 A,,8 |] %16
w: ear.|
w: stand.|
w: thee.|
w: gate.|

